icon-themes/breeze_svg/cmd/32/euroconverter.svg

<svg viewBox="0 0 32 32" xmlns="http://www.w3.org/2000/svg"><path d="m21.5 4c-6.687281 0-12.2233867 4.327029-13.296875 10h-3.203125v1h3.0566406c-.0307715.330629-.0566406.66231-.0566406 1s.0258691.669371.0566406 1h-3.0566406v1h3.203125c1.0734883 5.672971 6.609594 10 13.296875 10 1.901905-.0036 3.781499-.364312 5.515625-1.058594l-.384766-.925781c-1.611786.644134-3.36066.979662-5.130859.984375-6.126257 0-11.213101-3.88122-12.2832031-9h8.7832031v-1h-8.9433594c-.0338079-.329748-.0566406-.662505-.0566406-1s.0228327-.670252.0566406-1h10.9433594v-1h-10.7832031c1.0701021-5.1187803 6.1569461-9 12.2832031-9 1.769877.00349 3.518737.3376796 5.130859.9804688l.382813-.9179688c-1.733195-.6953874-3.612109-1.0574594-5.513672-1.0625z" fill="#4d4d4d"/></svg>

<svg xmlns="http://www.w3.org/2000/svg" viewBox="0 0 32 32">
 <path 
     style="fill:#4d4d4d" 
     d="M 21.5 4 C 14.812719 4 9.2766133 8.327029 8.203125 14 L 5 14 L 5 15 L 8.0566406 15 C 8.0258691 15.330629 8 15.66231 8 16 C 8 16.33769 8.0258691 16.669371 8.0566406 17 L 5 17 L 5 18 L 8.203125 18 C 9.2766133 23.672971 14.812719 28 21.5 28 C 23.401905 27.9964 25.281499 27.635688 27.015625 26.941406 L 26.630859 26.015625 C 25.019073 26.659759 23.270199 26.995287 21.5 27 C 15.373743 27 10.286899 23.11878 9.2167969 18 L 18 18 L 18 17 L 9.0566406 17 C 9.0228327 16.670252 9 16.337495 9 16 C 9 15.662505 9.0228327 15.329748 9.0566406 15 L 20 15 L 20 14 L 9.2167969 14 C 10.286899 8.8812197 15.373743 5 21.5 5 C 23.269877 5.00349 25.018737 5.3376796 26.630859 5.9804688 L 27.013672 5.0625 C 25.280477 4.3671126 23.401563 4.0050406 21.5 4 z "
     />
</svg>
